X: 040237
T: Delights of Inchicore 
C: BB
R: jig
Q: 1/8=320
M: 6/8
L: 1/8
K: G
A|"G"DGA BAG|"Am"AcA "D"AFE|"G"DGB d^cd|"A"ed^c "D"d2 A|
"G"DGA BAG|"Am"AcA ABc|"G"ded "Am"cAF|"D"AGF "G"G2 :|
A|"G"dgg Bdg|"D"a^ga fed|"G"BGB "C"cBc|"A"ed^c "D"d2 A|
"G"dgg "Am"aga|"Em"bag "D7"fdc |"G"Bcd "Am6"cAF |"D"AGF "G"G2 :|
